NotoEmoji/1f1f5-1f1f7.svg

<svg xmlns="http://www.w3.org/2000/svg" viewBox="0 0 36 36"><path fill="#EA0B19" d="M32 5H4c-1.008 0-1.926.375-2.629.99L6.923 10H36V9c0-2.209-1.791-4-4-4z"/><path fill="#FFF" d="M13.846 15H36v-5H6.923z"/><path fill="#EA0B19" d="M18 18l-4.154 3H36v-6H13.846z"/><path fill="#FFF" d="M6.923 26H36v-5H13.846z"/><path fill="#EA0B19" d="M1.371 30.01c.703.615 1.621.99 2.629.99h28c2.209 0 4-1.791 4-4v-1H6.923l-5.552 4.01z"/><path fill="#0F55EC" d="M13.846 21L18 18l-4.154-3-6.923-5-5.552-4.01C.532 6.724 0 7.799 0 9v18c0 1.201.532 2.276 1.371 3.01L6.923 26l6.923-5z"/><path fill="#FFF" d="M8.187 18.838l2.313-1.675H7.641l-.888-2.726-.89 2.726H3l2.315 1.677-.89 2.723 2.325-1.684 2.325 1.684z"/></svg>

<svg viewBox="0 0 36 36" xmlns="http://www.w3.org/2000/svg"><path d="m32 5h-28c-1.01 0-1.93.38-2.63.99l5.55 4.01h29.08v-1c0-2.21-1.79-4-4-4z" fill="#ea0b19"/><path d="m13.85 15h22.15v-5h-29.08z" fill="#fff"/><path d="m18 18-4.15 3h22.15v-6h-22.15z" fill="#ea0b19"/><path d="m6.92 26h29.08v-5h-22.15z" fill="#fff"/><path d="m1.37 30.01c.7.62 1.62.99 2.63.99h28c2.21 0 4-1.79 4-4v-1h-29.08z" fill="#ea0b19"/><path d="m13.85 21 4.15-3-4.15-3-6.92-5-5.55-4.01c-.85.73-1.38 1.81-1.38 3.01v18c0 1.2.53 2.28 1.37 3.01l5.55-4.01 6.92-5z" fill="#0f55ec"/><path d="m8.19 18.84 2.31-1.68h-2.86l-.89-2.73-.89 2.73h-2.86l2.32 1.68-.89 2.72 2.33-1.68 2.33 1.68z" fill="#fff"/></svg>
